www/assets/icons/pin_invoke.svg

<svg xmlns="http://www.w3.org/2000/svg" width="24" height="24" viewBox="0 0 24 24" fill='currentColor'><path d="M22 12v6c0 1.1-.9 2-2 2H4c-1.1 0-2-.9-2-2V6c0-1.1.9-2 2-2h10v2H4v12h16v-6zm0-5c0-1.66-1.34-3-3-3s-3 1.34-3 3 1.34 3 3 3 3-1.34 3-3m-10.53 5.12-2.83 2.83 1.41 1.41 2.83-2.83L15 15.66V10H9.34z"/></svg>

<svg width="24" height="24" viewBox="0 0 24 24" xmlns="http://www.w3.org/2000/svg" fill='currentColor'><path d="M22 12V18C22 19.1 21.1 20 20 20H4C2.9 20 2 19.1 2 18V6C2 4.9 2.9 4 4 4H14V6H4V18H20V12H22ZM22 7C22 5.34 20.66 4 19 4C17.34 4 16 5.34 16 7C16 8.66 17.34 10 19 10C20.66 10 22 8.66 22 7ZM11.47 12.12L8.64 14.95L10.05 16.36L12.88 13.53L15 15.66V10H9.34L11.47 12.12Z"/></svg>
